X:179
T:Mooncoin Jig, The
R:jig
D:Mary Bergin: Feadoga Stain 2
D:Paddy Glackin: In Full Spate
Z:id:hn-jig-179
M:6/8
K:Amix
cBA AEA|AEA Bcd|cBA Ace|dBG Bcd|cBA AEA|AEA Bcd|Ace gfe|dBG Bcd:|
cde efg|f/g/af ged|cde efg|faA Bcd|cde efg|afd bge|afd gec|dBG Bcd:|
cBA Aaf|ecA Bcd|cBA g2e|dBG Bcd|cBA Aaa|Agg Aff|Aee efg|dBG Bcd:|

